icons/chart-pie.svg

<svg width="24" height="24" viewBox="0 0 24 24" fill="none" xmlns="http://www.w3.org/2000/svg">
<path fill-rule="evenodd" clip-rule="evenodd" d="M11 3C11 2.44772 11.4477 2 12 2C17.5228 2 22 6.47715 22 12C22 12.5523 21.5523 13 21 13H12C11.4477 13 11 12.5523 11 12V3ZM13 4.06189V11H19.9381C19.4869 7.38128 16.6187 4.51314 13 4.06189ZM8.89551 3.49049C9.1413 3.98507 8.93961 4.58525 8.44503 4.83103C5.80844 6.14131 4 8.86038 4 12C4 16.4183 7.58172 20 12 20C15.1396 20 17.8587 18.1916 19.169 15.555C19.4147 15.0604 20.0149 14.8587 20.5095 15.1045C21.0041 15.3503 21.2058 15.9505 20.96 16.445C19.3249 19.7353 15.9278 22 12 22C6.47715 22 2 17.5228 2 12C2 8.07218 4.26468 4.67514 7.55497 3.04001C8.04955 2.79422 8.64973 2.99591 8.89551 3.49049Z" fill="black"/>
</svg>

<svg
  width="24"
  height="24"
  viewBox="0 0 24 24"
  xmlns="http://www.w3.org/2000/svg"
>
  <path
    fill-rule="evenodd"
    clip-rule="evenodd"
    d="M11 3a1 1 0 0 1 1-1c5.523 0 10 4.477 10 10a1 1 0 0 1-1 1h-9a1 1 0 0 1-1-1V3zm2 1.062V11h6.938A8.004 8.004 0 0 0 13 4.062zM8.896 3.49a1 1 0 0 1-.451 1.341 8 8 0 1 0 10.724 10.724 1 1 0 1 1 1.791.89A10 10 0 0 1 12 22C6.477 22 2 17.523 2 12a10 10 0 0 1 5.555-8.96 1 1 0 0 1 1.34.45z"
  />
</svg>
